source/img/insta-icon.svg

<svg width="30" height="30" viewBox="0 0 30 30" fill="none" xmlns="http://www.w3.org/2000/svg">
<path fill-rule="evenodd" clip-rule="evenodd" d="M20.1448 6.87695H9.8552C8.21303 6.87695 6.87671 8.21319 6.87671 9.85544V20.145C6.87671 21.7875 8.21303 23.1238 9.8552 23.1238H20.1448C21.7872 23.1238 23.1235 21.7875 23.1235 20.145V9.85544C23.1235 8.21327 21.7872 6.87695 20.1448 6.87695ZM14.9998 20.3486C12.051 20.3486 9.65155 17.9492 9.65155 15C9.65155 12.0512 12.051 9.65179 14.9998 9.65179C17.9489 9.65179 20.3484 12.0512 20.3484 15C20.3484 17.9492 17.9489 20.3486 14.9998 20.3486ZM20.5204 10.7578C19.8223 10.7578 19.2546 10.1901 19.2546 9.49231C19.2546 8.79448 19.8223 8.22679 20.5204 8.22679C21.2182 8.22679 21.7859 8.79448 21.7859 9.49231C21.7859 10.1901 21.2182 10.7578 20.5204 10.7578Z" fill="url(#paint0_linear)"/>
<path fill-rule="evenodd" clip-rule="evenodd" d="M14.9999 11.9121C13.2975 11.9121 11.9113 13.2977 11.9113 15.0001C11.9113 16.703 13.2975 18.089 14.9999 18.089C16.7028 18.089 18.0881 16.703 18.0881 15.0001C18.0881 13.2977 16.7028 11.9121 14.9999 11.9121Z" fill="url(#paint1_linear)"/>
<path fill-rule="evenodd" clip-rule="evenodd" d="M3 0C1.34315 0 0 1.34315 0 3V27C0 28.6569 1.34315 30 3 30H27C28.6569 30 30 28.6569 30 27V3C30 1.34315 28.6569 0 27 0H3ZM25.3833 20.1448C25.3833 23.0337 23.0337 25.3833 20.1448 25.3833H9.85525C6.96659 25.3833 4.6167 23.0337 4.6167 20.1448V9.85525C4.6167 6.96659 6.96659 4.6167 9.85525 4.6167H20.1448C23.0337 4.6167 25.3833 6.96659 25.3833 9.85525V20.1448Z" fill="url(#paint2_linear)"/>
<defs>
<linearGradient id="paint0_linear" x1="7.68289" y1="22.3171" x2="23.4146" y2="7.68297" gradientUnits="userSpaceOnUse">
<stop stop-color="#F96B3E"/>
<stop offset="1" stop-color="#9F43BA"/>
</linearGradient>
<linearGradient id="paint1_linear" x1="17.1951" y1="13.1708" x2="13.1708" y2="17.1952" gradientUnits="userSpaceOnUse">
<stop stop-color="#BD5090"/>
<stop offset="1" stop-color="#DD5E64"/>
</linearGradient>
<linearGradient id="paint2_linear" x1="1.09756" y1="29.2683" x2="30" y2="1.09756" gradientUnits="userSpaceOnUse">
<stop stop-color="#FFDE2F"/>
<stop offset="0.317708" stop-color="#F84343"/>
<stop offset="1" stop-color="#7243F8"/>
</linearGradient>
</defs>
</svg>

<svg width="30" height="30" fill="none" xmlns="http://www.w3.org/2000/svg"><path fill-rule="evenodd" clip-rule="evenodd" d="M20.145 6.877H9.855a2.982 2.982 0 00-2.978 2.978v10.29a2.982 2.982 0 002.978 2.979h10.29a2.982 2.982 0 002.979-2.979V9.855a2.982 2.982 0 00-2.98-2.978zM15 20.349A5.355 5.355 0 019.652 15c0-2.949 2.399-5.348 5.348-5.348s5.348 2.4 5.348 5.348c0 2.95-2.4 5.349-5.348 5.349zm5.52-9.591a1.267 1.267 0 01-1.265-1.266 1.266 1.266 0 111.265 1.266z" fill="url(#paint0_linear)"/><path fill-rule="evenodd" clip-rule="evenodd" d="M15 11.912A3.092 3.092 0 0011.91 15 3.093 3.093 0 0015 18.09 3.092 3.092 0 0018.088 15 3.092 3.092 0 0015 11.912z" fill="url(#paint1_linear)"/><path fill-rule="evenodd" clip-rule="evenodd" d="M3 0a3 3 0 00-3 3v24a3 3 0 003 3h24a3 3 0 003-3V3a3 3 0 00-3-3H3zm22.383 20.145a5.244 5.244 0 01-5.238 5.238H9.855a5.244 5.244 0 01-5.238-5.238V9.855a5.244 5.244 0 015.238-5.238h10.29a5.244 5.244 0 015.238 5.238v10.29z" fill="url(#paint2_linear)"/><defs><linearGradient id="paint0_linear" x1="7.683" y1="22.317" x2="23.415" y2="7.683" gradientUnits="userSpaceOnUse"><stop stop-color="#F96B3E"/><stop offset="1" stop-color="#9F43BA"/></linearGradient><linearGradient id="paint1_linear" x1="17.195" y1="13.171" x2="13.171" y2="17.195" gradientUnits="userSpaceOnUse"><stop stop-color="#BD5090"/><stop offset="1" stop-color="#DD5E64"/></linearGradient><linearGradient id="paint2_linear" x1="1.098" y1="29.268" x2="30" y2="1.098" gradientUnits="userSpaceOnUse"><stop stop-color="#FFDE2F"/><stop offset=".318" stop-color="#F84343"/><stop offset="1" stop-color="#7243F8"/></linearGradient></defs></svg>
